public/images/clock.svg

<?xml version="1.0" encoding="UTF-8"?>
<svg width="20px" height="20px" viewBox="0 0 20 20" version="1.1" xmlns="http://www.w3.org/2000/svg" xmlns:xlink="http://www.w3.org/1999/xlink">
    <!-- Generator: Sketch 55.1 (78136) - https://sketchapp.com -->
    <title>Shape</title>
    <desc>Created with Sketch.</desc>
    <g id="Desktop" stroke="none" stroke-width="1" fill="none" fill-rule="evenodd">
        <g id="Resources-Special" transform="translate(-121.000000, -622.000000)" fill="#009CDE" fill-rule="nonzero">
            <g id="Group-12" transform="translate(121.000000, 622.000000)">
                <g id="np_clock_746591_000000">
                    <path d="M10,0 C4.48456522,0 0,4.48456522 0,10 C0,15.5154348 4.48456522,20 10,20 C15.5154348,20 20,15.5154348 20,10 C20,4.48456522 15.5154348,0 10,0 Z M10,1.30434783 C14.8097826,1.30434783 18.6956522,5.19021739 18.6956522,10 C18.6956522,14.8097826 14.8097826,18.6956522 10,18.6956522 C5.19021739,18.6956522 1.30434783,14.8097826 1.30434783,10 C1.30434783,5.19021739 5.19021739,1.30434783 10,1.30434783 Z M10,2.82608696 C9.63995652,2.82608696 9.34782609,3.11821739 9.34782609,3.47826087 L9.34782609,10 C9.34782609,10.3600435 9.63995652,10.6521739 10,10.6521739 L16.0869565,10.6521739 C16.447,10.6521739 16.7391304,10.3600435 16.7391304,10 C16.7391304,9.63995652 16.447,9.34782609 16.0869565,9.34782609 L10.6521739,9.34782609 L10.6521739,3.47826087 C10.6521739,3.11821739 10.3600435,2.82608696 10,2.82608696 Z" id="Shape"></path>
                </g>
            </g>
        </g>
    </g>
</svg>

<svg width="20" height="20" xmlns="http://www.w3.org/2000/svg"><path d="M10 0C4.485 0 0 4.485 0 10s4.485 10 10 10 10-4.485 10-10S15.515 0 10 0zm0 1.304A8.686 8.686 0 0 1 18.696 10 8.686 8.686 0 0 1 10 18.696 8.686 8.686 0 0 1 1.304 10 8.686 8.686 0 0 1 10 1.304zm0 1.522a.652.652 0 0 0-.652.652V10c0 .36.292.652.652.652h6.087a.652.652 0 0 0 0-1.304h-5.435v-5.87A.652.652 0 0 0 10 2.826z" fill="#009CDE"/></svg>
